X: 7
T: Return From Fingal
R: march
M: 4/4
L: 1/8
K: Fdor
|:c2AG FGAB|c2AG F4|BAGB e2B2|c2B2 cdef|
c2AG FGAB|c2AG F4|BAGB e2Bc|G2F2 F4:|
|:g2f2 f2ed|c2B2 e2B2|c2B2 e2B2|c2B2 cdef|
g2f2 f2ed|c2B2 e2B2|BAGB e2Bc|G2F2 F4:|

